source/manual/Azure Lab Services_COLOR.svg

<svg viewBox="0 0 16 16" class="" role="presentation" focusable="false" xmlns:svg="http://www.w3.org/2000/svg" xmlns:xlink="http://www.w3.org/1999/xlink" id="FxSymbol0-0b0"><g><title></title><path d="M16 8.806a2.679 2.679 0 0 1-2.655 2.674h-.725L10 7.465V5l.509-.009A.493.493 0 0 0 11 4.5a.493.493 0 0 0-.491-.5H7.491A.493.493 0 0 0 7 4.491a.493.493 0 0 0 .491.491L8 5v2.47l-2.662 4.014H3.155a3.411 3.411 0 0 1 .415-6.809 3.333 3.333 0 0 1 1.489.348 4.1 4.1 0 1 1 8.12 1.132h.188A2.644 2.644 0 0 1 16 8.806z" class="msportalfx-svg-c19" fill="#0072c6"></path><path d="M12.373 14H5.588a.275.275 0 0 1-.231-.426L7.688 10h2.562l2.35 3.573a.275.275 0 0 1-.227.427z" class="msportalfx-svg-c15" fill="#59b4d9"></path></g></svg>

<?xml version="1.0" encoding="UTF-8" standalone="no"?>
<svg
   xmlns:dc="http://purl.org/dc/elements/1.1/"
   xmlns:cc="http://creativecommons.org/ns#"
   xmlns:rdf="http://www.w3.org/1999/02/22-rdf-syntax-ns#"
   xmlns:svg="http://www.w3.org/2000/svg"
   xmlns="http://www.w3.org/2000/svg"
   xmlns:sodipodi="http://sodipodi.sourceforge.net/DTD/sodipodi-0.dtd"
   xmlns:inkscape="http://www.inkscape.org/namespaces/inkscape"
   viewBox="0 0 16.013298 12.588001"
   class=""
   role="presentation"
   focusable="false"
   id="FxSymbol0-0b0"
   version="1.1"
   sodipodi:docname="Azure Lab Services_COLOR.svg"
   width="16.013298"
   height="12.588001"
   inkscape:version="0.92.2 (5c3e80d, 2017-08-06)">
  <metadata
     id="metadata15">
    <rdf:RDF>
      <cc:Work
         rdf:about="">
        <dc:format>image/svg+xml</dc:format>
        <dc:type
           rdf:resource="http://purl.org/dc/dcmitype/StillImage" />
      </cc:Work>
    </rdf:RDF>
  </metadata>
  <defs
     id="defs13" />
  <sodipodi:namedview
     pagecolor="#ffffff"
     bordercolor="#666666"
     borderopacity="1"
     objecttolerance="10"
     gridtolerance="10"
     guidetolerance="10"
     inkscape:pageopacity="0"
     inkscape:pageshadow="2"
     inkscape:window-width="640"
     inkscape:window-height="480"
     id="namedview11"
     showgrid="false"
     inkscape:zoom="14.75"
     inkscape:cx="8.0132879"
     inkscape:cy="6.0000025"
     inkscape:window-x="0"
     inkscape:window-y="0"
     inkscape:window-maximized="0"
     inkscape:current-layer="FxSymbol0-0b0" />
  <g
     id="g8"
     transform="translate(0.01328787,-1.4120015)">
    <title
       id="title2" />
    <path
       d="M 16,8.806 A 2.679,2.679 0 0 1 13.345,11.48 H 12.62 L 10,7.465 V 5 L 10.509,4.991 A 0.493,0.493 0 0 0 11,4.5 0.493,0.493 0 0 0 10.509,4 H 7.491 A 0.493,0.493 0 0 0 7,4.491 0.493,0.493 0 0 0 7.491,4.982 L 8,5 V 7.47 L 5.338,11.484 H 3.155 a 3.411,3.411 0 0 1 0.415,-6.809 3.333,3.333 0 0 1 1.489,0.348 4.1,4.1 0 1 1 8.12,1.132 h 0.188 A 2.644,2.644 0 0 1 16,8.806 Z"
       class="msportalfx-svg-c19"
       id="path4"
       inkscape:connector-curvature="0"
       style="fill:#0072c6" />
    <path
       d="M 12.373,14 H 5.588 A 0.275,0.275 0 0 1 5.357,13.574 L 7.688,10 h 2.562 l 2.35,3.573 A 0.275,0.275 0 0 1 12.373,14 Z"
       class="msportalfx-svg-c15"
       id="path6"
       inkscape:connector-curvature="0"
       style="fill:#59b4d9" />
  </g>
</svg>
